/* XPM */
static char * list_texbucket_xpm[] = {
"20 16 51 1",
" 	c None",
".	c #BDBDBD",
"+	c #949494",
"@	c #DEDEDE",
"#	c #737373",
"$	c #636363",
"%	c #424242",
"&	c #FFFFFF",
"*	c #212121",
"=	c #530073",
"-	c #6C0094",
";	c #ADADAD",
">	c #A300DE",
",	c #BC00FF",
"'	c #000373",
")	c #000694",
"!	c #8A00BD",
"~	c #7E00AD",
"{	c #000EDE",
"]	c #0012FF",
"^	c #00735B",
"/	c #009475",
"(	c #000ABD",
"_	c #0008AD",
":	c #00DEB1",
"<	c #00FFCC",
"[	c #2E7300",
"}	c #3E9400",
"|	c #00BD97",
"1	c #00AD8A",
"2	c #70FF00",
"3	c #735500",
"4	c #51BD00",
"5	c #4AAD00",
"6	c #61DE00",
"7	c #FFC000",
"8	c #000000",
"9	c #733400",
"0	c #944500",
"a	c #BD8D00",
"b	c #AD8100",
"c	c #DE6A00",
"d	c #FF7B00",
"e	c #730000",
"f	c #940000",
"g	c #BD5900",
"h	c #AD5100",
"i	c #DE0000",
"j	c #FF0000",
"k	c #BD0000",
"l	c #AD0000",
"                    ",
"                    ",
"       .++..@@      ",
"     .#$$$$$$$#@    ",
"    ##%%%%%%%%$#&   ",
"    #++*******@@&   ",
"    =--.@&.;+.>>,   ",
"     ')!>,!~$${]    ",
"     ^/({](_$*:<$   ",
"     [}/|<|1|:$2 $  ",
"      3}4245467$$$  ",
"    8890a7abacd     ",
" 88888efgdghgij     ",
"  88888efjklij      ",
"    8888888888      ",
"                    "};
